static/icons/projects/mashey.svg

<?xml version="1.0" encoding="UTF-8"?>
<svg width="71px" height="77px" viewBox="0 0 71 77" version="1.1" xmlns="http://www.w3.org/2000/svg" xmlns:xlink="http://www.w3.org/1999/xlink">
    <!-- Generator: Sketch 51 (57462) - http://www.bohemiancoding.com/sketch -->
    <title>Group 21</title>
    <desc>Created with Sketch.</desc>
    <defs>
        <polygon id="path-1" points="0 0.2237 9.7757 0.2237 9.7757 9.9997 0 9.9997"></polygon>
        <polygon id="path-3" points="0 0.0001 9.7757 0.0001 9.7757 9.7751 0 9.7751"></polygon>
    </defs>
    <g id="Page-1" stroke="none" stroke-width="1" fill="none" fill-rule="evenodd">
        <g id="Group-21">
            <path d="M65.4356,67.2237 C62.7366,67.2237 60.5476,69.4117 60.5476,72.1127 C60.5476,74.8117 62.7366,76.9997 65.4356,76.9997 C68.1356,76.9997 70.3236,74.8117 70.3236,72.1127 C70.3236,69.4117 68.1356,67.2237 65.4356,67.2237 M65.4356,69.3967 C66.9336,69.3967 68.1506,70.6147 68.1506,72.1127 C68.1506,73.6097 66.9336,74.8277 65.4356,74.8277 C63.9386,74.8277 62.7206,73.6097 62.7206,72.1127 C62.7206,70.6147 63.9386,69.3967 65.4356,69.3967" id="Fill-1" fill="#000000"></path>
            <g id="Group-5" transform="translate(0.000000, 67.000000)">
                <mask id="mask-2" fill="white">
                    <use xlink:href="#path-1"></use>
                </mask>
                <g id="Clip-4"></g>
                <path d="M4.8877,0.2237 C2.1887,0.2237 -0.0003,2.4117 -0.0003,5.1127 C-0.0003,7.8117 2.1887,9.9997 4.8877,9.9997 C7.5877,9.9997 9.7757,7.8117 9.7757,5.1127 C9.7757,2.4117 7.5877,0.2237 4.8877,0.2237 M4.8877,2.3967 C6.3857,2.3967 7.6027,3.6147 7.6027,5.1127 C7.6027,6.6097 6.3857,7.8277 4.8877,7.8277 C3.3897,7.8277 2.1727,6.6097 2.1727,5.1127 C2.1727,3.6147 3.3897,2.3967 4.8877,2.3967" id="Fill-3" fill="#000000" mask="url(#mask-2)"></path>
            </g>
            <g id="Group-8">
                <mask id="mask-4" fill="white">
                    <use xlink:href="#path-3"></use>
                </mask>
                <g id="Clip-7"></g>
                <path d="M4.8877,0.0001 C2.1887,0.0001 -0.0003,2.1881 -0.0003,4.8891 C-0.0003,7.5871 2.1887,9.7751 4.8877,9.7751 C7.5877,9.7751 9.7757,7.5871 9.7757,4.8891 C9.7757,2.1881 7.5877,0.0001 4.8877,0.0001 M4.8877,2.1731 C6.3857,2.1731 7.6027,3.3911 7.6027,4.8891 C7.6027,6.3851 6.3857,7.6041 4.8877,7.6041 C3.3897,7.6041 2.1727,6.3851 2.1727,4.8891 C2.1727,3.3911 3.3897,2.1731 4.8877,2.1731" id="Fill-6" fill="#000000" mask="url(#mask-4)"></path>
            </g>
            <path d="M35.2036,64.0528 C32.5046,64.0528 30.3156,66.2408 30.3156,68.9408 C30.3156,71.6408 32.5046,73.8278 35.2036,73.8278 C37.9036,73.8278 40.0916,71.6408 40.0916,68.9408 C40.0916,66.2408 37.9036,64.0528 35.2036,64.0528 M35.2036,66.2248 C36.7016,66.2248 37.9186,67.4438 37.9186,68.9408 C37.9186,70.4378 36.7016,71.6568 35.2036,71.6568 C33.7056,71.6568 32.4886,70.4378 32.4886,68.9408 C32.4886,67.4438 33.7056,66.2248 35.2036,66.2248" id="Fill-9" fill="#000000"></path>
            <path d="M62.8345,11.6563 C62.1995,11.4033 61.6105,11.0623 61.0815,10.6463 L38.2675,62.6013 C38.8995,62.9133 39.4785,63.3133 39.9865,63.7913 L62.7825,11.7763 L62.8345,11.6563 Z" id="Fill-11" fill="#000000"></path>
            <path d="M32.044,62.6075 L9.231,10.6555 C8.701,11.0705 8.111,11.4095 7.477,11.6615 L7.527,11.7745 L30.386,63.7455 C30.88,63.2925 31.437,62.9075 32.044,62.6075" id="Fill-13" fill="#000000"></path>
            <path d="M5.9668,12.0675 C5.6138,12.1225 5.2558,12.1595 4.8878,12.1595 C4.5648,12.1595 4.2498,12.1295 3.9388,12.0875 L3.9388,65.1165 C4.2498,65.0745 4.5648,65.0445 4.8878,65.0445 C5.2558,65.0445 5.6138,65.0825 5.9668,65.1355 L5.9668,12.1025 L5.9668,12.0675 Z" id="Fill-15" fill="#000000"></path>
            <path d="M65.4356,12.1593 C65.0626,12.1593 64.7006,12.1213 64.3436,12.0653 L64.3436,12.1023 L64.3436,65.1383 C64.7006,65.0823 65.0626,65.0453 65.4356,65.0453 C65.7876,65.0453 66.1316,65.0793 66.4696,65.1293 L66.4696,12.0743 C66.1316,12.1253 65.7876,12.1593 65.4356,12.1593" id="Fill-17" fill="#000000"></path>
            <path d="M65.4131,0.2042 C62.7141,0.2042 60.5251,2.3922 60.5251,5.0922 C60.5251,7.7912 62.7141,9.9782 65.4131,9.9782 C68.1121,9.9782 70.3011,7.7912 70.3011,5.0922 C70.3011,2.3922 68.1121,0.2042 65.4131,0.2042 M65.4131,2.3762 C66.9111,2.3762 68.1281,3.5952 68.1281,5.0922 C68.1281,6.5892 66.9111,7.8072 65.4131,7.8072 C63.9151,7.8072 62.6981,6.5892 62.6981,5.0922 C62.6981,3.5952 63.9151,2.3762 65.4131,2.3762" id="Fill-19" fill="#000000"></path>
        </g>
    </g>
</svg>

<svg xmlns="http://www.w3.org/2000/svg" viewBox="0 0 70.32 77"><title>Asset 8</title><g id="Layer_2" data-name="Layer 2"><g id="Layer_1-2" data-name="Layer 1"><path d="M65.44,69.4a2.72,2.72,0,1,1-2.72,2.71,2.71,2.71,0,0,1,2.72-2.71m0-2.18a4.89,4.89,0,1,0,4.88,4.89,4.89,4.89,0,0,0-4.88-4.89"/><path d="M4.89,69.4a2.72,2.72,0,1,1-2.72,2.71A2.71,2.71,0,0,1,4.89,69.4m0-2.18a4.89,4.89,0,1,0,4.89,4.89,4.89,4.89,0,0,0-4.89-4.89"/><path d="M4.89,2.17A2.72,2.72,0,1,1,2.17,4.89,2.71,2.71,0,0,1,4.89,2.17M4.89,0A4.89,4.89,0,1,0,9.78,4.89,4.89,4.89,0,0,0,4.89,0"/><path d="M35.2,66.23a2.72,2.72,0,1,1-2.71,2.71,2.71,2.71,0,0,1,2.71-2.71m0-2.18a4.89,4.89,0,1,0,4.89,4.89,4.88,4.88,0,0,0-4.89-4.89"/><path d="M62.83,11.66a7.6,7.6,0,0,1-1.75-1l-22.81,52A7,7,0,0,1,40,63.79l22.79-52Z"/><path d="M32,62.61,9.23,10.66a7.22,7.22,0,0,1-1.75,1l0,.11,22.86,52A6.94,6.94,0,0,1,32,62.61"/><path d="M6,12.07a7.74,7.74,0,0,1-1.08.09,7.32,7.32,0,0,1-.95-.07v53A5.89,5.89,0,0,1,4.89,65a6.48,6.48,0,0,1,1.08.1V12.07Z"/><path d="M65.44,12.16a7.9,7.9,0,0,1-1.1-.09V65.14a6.62,6.62,0,0,1,1.1-.1,7,7,0,0,1,1,.09V12.07a7,7,0,0,1-1,.09"/><path d="M65.41,2.38A2.72,2.72,0,1,1,62.7,5.09a2.71,2.71,0,0,1,2.71-2.71m0-2.18A4.89,4.89,0,1,0,70.3,5.09,4.88,4.88,0,0,0,65.41.2"/></g></g></svg>
